Newaita-dark/apps/64/preferences-desktop-locale.svg

<?xml version="1.0" encoding="UTF-8"?>
<svg xmlns="http://www.w3.org/2000/svg" xmlns:xlink="http://www.w3.org/1999/xlink" width="64pt" height="64pt" viewBox="0 0 64 64" version="1.1">
<defs>
<linearGradient id="linear0" gradientUnits="userSpaceOnUse" x1="254" y1="233.5" x2="254" y2="254.666672" gradientTransform="matrix(0.125012,0,0,0.125012,6.61521,26.87757)">
<stop offset="0" style="stop-color:rgb(0%,0%,0%);stop-opacity:0.27451;"/>
<stop offset="1" style="stop-color:rgb(0%,0%,0%);stop-opacity:0;"/>
</linearGradient>
<radialGradient id="radial0" gradientUnits="userSpaceOnUse" cx="450.908936" cy="189.579361" fx="450.908936" fy="189.579361" r="21.166656" gradientTransform="matrix(0.000000348341,-0.156265,-0.281277,-0.000000203077,110.876514,127.190665)">
<stop offset="0" style="stop-color:rgb(0%,0%,0%);stop-opacity:0.313725;"/>
<stop offset="0.222222" style="stop-color:rgb(0%,0%,0%);stop-opacity:0.27451;"/>
<stop offset="1" style="stop-color:rgb(0%,0%,0%);stop-opacity:0;"/>
</radialGradient>
<radialGradient id="radial1" gradientUnits="userSpaceOnUse" cx="450.908936" cy="189.579361" fx="450.908936" fy="189.579361" r="21.166656" gradientTransform="matrix(-0.000000348341,0.156265,0.281277,0.000000203077,2.243668,-15.054958)">
<stop offset="0" style="stop-color:rgb(0%,0%,0%);stop-opacity:0.313725;"/>
<stop offset="0.222222" style="stop-color:rgb(0%,0%,0%);stop-opacity:0.27451;"/>
<stop offset="1" style="stop-color:rgb(0%,0%,0%);stop-opacity:0;"/>
</radialGradient>
<radialGradient id="radial2" gradientUnits="userSpaceOnUse" cx="450.908936" cy="189.579361" fx="450.908936" fy="189.579361" r="21.166656" gradientTransform="matrix(-0.000000348341,-0.156265,0.281277,-0.000000203077,2.243668,127.190665)">
<stop offset="0" style="stop-color:rgb(0%,0%,0%);stop-opacity:0.313725;"/>
<stop offset="0.222222" style="stop-color:rgb(0%,0%,0%);stop-opacity:0.27451;"/>
<stop offset="1" style="stop-color:rgb(0%,0%,0%);stop-opacity:0;"/>
</radialGradient>
<radialGradient id="radial3" gradientUnits="userSpaceOnUse" cx="450.908936" cy="189.579361" fx="450.908936" fy="189.579361" r="21.166656" gradientTransform="matrix(0.000000348341,0.156265,-0.281277,0.000000203077,110.87651,-15.054959)">
<stop offset="0" style="stop-color:rgb(0%,0%,0%);stop-opacity:0.313725;"/>
<stop offset="0.222222" style="stop-color:rgb(0%,0%,0%);stop-opacity:0.27451;"/>
<stop offset="1" style="stop-color:rgb(0%,0%,0%);stop-opacity:0;"/>
</radialGradient>
<linearGradient id="linear1" gradientUnits="userSpaceOnUse" x1="31.75" y1="-31.083334" x2="349.25" y2="0.666667" gradientTransform="matrix(0.125012,0,0,0.125012,0,26.877566)">
<stop offset="0" style="stop-color:rgb(49.411765%,34.117647%,76.078431%);stop-opacity:1;"/>
<stop offset="1" style="stop-color:rgb(58.431373%,45.882353%,80.392157%);stop-opacity:1;"/>
</linearGradient>
<linearGradient id="linear2" gradientUnits="userSpaceOnUse" x1="31.75" y1="-31.083334" x2="349.25" y2="0.666667" gradientTransform="matrix(0.125012,0,0,0.125012,17.200529,38.59344)">
<stop offset="0" style="stop-color:rgb(100%,43.921569%,26.27451%);stop-opacity:1;"/>
<stop offset="1" style="stop-color:rgb(100%,54.117647%,39.607843%);stop-opacity:1;"/>
</linearGradient>
</defs>
<g id="surface1">
<path style=" stroke:none;fill-rule:nonzero;fill:url(#linear0);" d="M 54.90625 55.871094 L 58.214844 55.871094 L 58.214844 58.8125 L 54.90625 58.8125 Z M 54.90625 55.871094 "/>
<path style=" stroke:none;fill-rule:nonzero;fill:url(#radial0);" d="M 58.214844 56.066406 L 63.507812 56.066406 L 63.507812 53.421875 L 58.214844 53.421875 Z M 58.214844 56.066406 "/>
<path style=" stroke:none;fill-rule:nonzero;fill:url(#radial1);" d="M 54.90625 56.066406 L 49.613281 56.066406 L 49.613281 58.714844 L 54.90625 58.714844 Z M 54.90625 56.066406 "/>
<path style=" stroke:none;fill-rule:nonzero;fill:url(#radial2);" d="M 54.90625 56.066406 L 49.613281 56.066406 L 49.613281 53.421875 L 54.90625 53.421875 Z M 54.90625 56.066406 "/>
<path style=" stroke:none;fill-rule:nonzero;fill:url(#radial3);" d="M 58.214844 56.066406 L 63.507812 56.066406 L 63.507812 58.714844 L 58.214844 58.714844 Z M 58.214844 56.066406 "/>
<path style=" stroke:none;fill-rule:evenodd;fill:url(#linear1);" d="M 10.585938 5.792969 C 9.59375 5.792969 7.542969 5.835938 4.699219 7.253906 C 4.253906 7.480469 3.96875 7.9375 3.96875 8.4375 L 3.96875 38.867188 C 3.96875 39.851562 5.003906 40.488281 5.882812 40.050781 C 8.332031 38.828125 9.59375 38.867188 10.585938 38.867188 C 15.65625 38.867188 19.449219 40.128906 24.113281 41.460938 C 28.777344 42.792969 34.253906 44.160156 42.335938 44.160156 C 43.066406 44.160156 43.660156 43.566406 43.660156 42.835938 L 43.660156 12.40625 C 43.660156 11.675781 43.066406 11.085938 42.335938 11.085938 C 34.546875 11.085938 29.4375 9.804688 24.839844 8.492188 C 20.242188 7.175781 16.097656 5.792969 10.585938 5.792969 Z M 10.585938 5.792969 "/>
<path style=" stroke:none;fill-rule:evenodd;fill:rgb(100%,100%,100%);fill-opacity:0.392157;" d="M 10.585938 5.792969 C 9.59375 5.792969 7.542969 5.835938 4.699219 7.253906 C 4.253906 7.480469 3.96875 7.9375 3.96875 8.4375 L 3.96875 9.097656 C 3.96875 8.597656 4.253906 8.140625 4.699219 7.917969 C 7.542969 6.496094 9.59375 6.453125 10.585938 6.453125 C 16.097656 6.453125 20.242188 7.835938 24.839844 9.152344 C 29.4375 10.464844 34.546875 11.746094 42.335938 11.746094 C 43.066406 11.746094 43.660156 12.335938 43.660156 13.066406 L 43.660156 12.40625 C 43.660156 11.675781 43.066406 11.085938 42.335938 11.085938 C 34.546875 11.085938 29.4375 9.804688 24.839844 8.492188 C 20.242188 7.175781 16.097656 5.792969 10.585938 5.792969 Z M 10.585938 5.792969 "/>
<path style=" stroke:none;fill-rule:evenodd;fill:rgb(0%,0%,0%);fill-opacity:0.235294;" d="M 10.585938 38.398438 C 9.59375 38.398438 8.332031 38.355469 5.882812 39.582031 C 5.003906 40.019531 3.96875 39.382812 3.96875 38.398438 L 3.96875 38.867188 C 3.96875 39.851562 5.003906 40.488281 5.882812 40.050781 C 8.332031 38.824219 9.59375 38.867188 10.585938 38.867188 C 15.65625 38.867188 19.449219 40.128906 24.113281 41.460938 C 28.777344 42.792969 34.253906 44.160156 42.335938 44.160156 C 43.066406 44.160156 43.660156 43.566406 43.660156 42.835938 L 43.660156 42.367188 C 43.660156 43.097656 43.066406 43.691406 42.335938 43.691406 C 34.253906 43.691406 28.777344 42.324219 24.113281 40.992188 C 19.449219 39.660156 15.65625 38.398438 10.585938 38.398438 Z M 10.585938 38.398438 "/>
<path style=" stroke:none;fill-rule:evenodd;fill:rgb(12.941177%,12.941177%,12.941177%);fill-opacity:1;" d="M 10.585938 5.605469 C 9.585938 5.605469 7.492188 5.652344 4.617188 7.089844 C 4.105469 7.34375 3.78125 7.867188 3.78125 8.4375 L 3.78125 38.867188 C 3.78125 39.984375 4.96875 40.714844 5.96875 40.21875 C 8.390625 39.007812 9.585938 39.054688 10.585938 39.054688 C 15.625 39.054688 19.394531 40.308594 24.0625 41.644531 C 28.730469 42.976562 34.230469 44.347656 42.335938 44.347656 C 43.167969 44.347656 43.847656 43.667969 43.847656 42.835938 L 43.847656 12.40625 C 43.847656 11.574219 43.167969 10.898438 42.335938 10.898438 C 34.566406 10.898438 29.484375 9.621094 24.890625 8.308594 C 20.296875 6.996094 16.128906 5.605469 10.585938 5.605469 Z M 10.585938 5.980469 C 16.066406 5.980469 20.183594 7.355469 24.789062 8.671875 C 29.390625 9.984375 34.523438 11.273438 42.335938 11.273438 C 42.964844 11.273438 43.472656 11.777344 43.472656 12.40625 L 43.472656 42.835938 C 43.472656 43.464844 42.964844 43.972656 42.335938 43.972656 C 34.273438 43.972656 28.824219 42.613281 24.164062 41.28125 C 19.507812 39.953125 15.6875 38.679688 10.585938 38.679688 C 9.597656 38.679688 8.273438 38.644531 5.800781 39.882812 C 5.039062 40.261719 4.15625 39.71875 4.15625 38.867188 L 4.15625 8.4375 C 4.15625 8.007812 4.398438 7.617188 4.785156 7.421875 C 7.597656 6.015625 9.597656 5.980469 10.585938 5.980469 Z M 10.585938 5.980469 "/>
<path style=" stroke:none;fill-rule:evenodd;fill:url(#linear2);" d="M 27.785156 17.507812 C 26.792969 17.507812 24.746094 17.550781 21.902344 18.972656 C 21.453125 19.195312 21.171875 19.652344 21.171875 20.152344 L 21.171875 50.585938 C 21.171875 51.566406 22.203125 52.207031 23.082031 51.765625 C 25.53125 50.542969 26.792969 50.582031 27.785156 50.582031 C 32.855469 50.582031 36.652344 51.847656 41.3125 53.179688 C 45.976562 54.511719 51.453125 55.875 59.539062 55.875 C 60.269531 55.875 60.859375 55.285156 60.859375 54.554688 L 60.859375 24.125 C 60.859375 23.394531 60.269531 22.800781 59.539062 22.800781 C 51.746094 22.800781 46.640625 21.519531 42.039062 20.207031 C 37.441406 18.890625 33.296875 17.507812 27.785156 17.507812 Z M 27.785156 17.507812 "/>
<path style=" stroke:none;fill-rule:evenodd;fill:rgb(100%,100%,100%);fill-opacity:0.392157;" d="M 27.785156 17.507812 C 26.792969 17.507812 24.746094 17.550781 21.902344 18.972656 C 21.453125 19.195312 21.171875 19.652344 21.171875 20.152344 L 21.171875 20.816406 C 21.171875 20.3125 21.453125 19.855469 21.902344 19.632812 C 24.746094 18.210938 26.792969 18.167969 27.785156 18.167969 C 33.296875 18.167969 37.441406 19.550781 42.039062 20.867188 C 46.640625 22.179688 51.746094 23.460938 59.539062 23.460938 C 60.269531 23.460938 60.859375 24.054688 60.859375 24.785156 L 60.859375 24.125 C 60.859375 23.394531 60.269531 22.800781 59.539062 22.800781 C 51.746094 22.800781 46.640625 21.519531 42.039062 20.207031 C 37.441406 18.890625 33.296875 17.507812 27.785156 17.507812 Z M 27.785156 17.507812 "/>
<path style=" stroke:none;fill-rule:evenodd;fill:rgb(0%,0%,0%);fill-opacity:0.235294;" d="M 27.785156 50.113281 C 26.792969 50.113281 25.53125 50.070312 23.082031 51.296875 C 22.203125 51.734375 21.171875 51.097656 21.171875 50.113281 L 21.171875 50.585938 C 21.171875 51.566406 22.203125 52.207031 23.082031 51.765625 C 25.53125 50.542969 26.792969 50.582031 27.785156 50.582031 C 32.855469 50.582031 36.652344 51.847656 41.3125 53.179688 C 45.976562 54.511719 51.453125 55.875 59.539062 55.875 C 60.269531 55.875 60.859375 55.285156 60.859375 54.554688 L 60.859375 54.082031 C 60.859375 54.8125 60.269531 55.40625 59.539062 55.40625 C 51.453125 55.40625 45.976562 54.039062 41.3125 52.707031 C 36.652344 51.375 32.855469 50.113281 27.785156 50.113281 Z M 27.785156 50.113281 "/>
<path style=" stroke:none;fill-rule:evenodd;fill:rgb(12.941177%,12.941177%,12.941177%);fill-opacity:1;" d="M 27.785156 17.320312 C 26.789062 17.320312 24.691406 17.367188 21.816406 18.804688 C 21.304688 19.058594 20.984375 19.582031 20.984375 20.152344 L 20.984375 50.585938 C 20.984375 51.699219 22.171875 52.433594 23.167969 51.933594 C 25.59375 50.722656 26.789062 50.769531 27.785156 50.769531 C 32.824219 50.769531 36.59375 52.023438 41.261719 53.359375 C 45.929688 54.691406 51.429688 56.0625 59.539062 56.0625 C 60.371094 56.0625 61.046875 55.382812 61.046875 54.554688 L 61.046875 24.125 C 61.046875 23.292969 60.371094 22.613281 59.539062 22.613281 C 51.765625 22.613281 46.6875 21.339844 42.089844 20.027344 C 37.496094 18.714844 33.328125 17.320312 27.785156 17.320312 Z M 27.785156 17.695312 C 33.265625 17.695312 37.386719 19.070312 41.988281 20.386719 C 46.589844 21.703125 51.726562 22.988281 59.539062 22.988281 C 60.167969 22.988281 60.671875 23.496094 60.671875 24.125 L 60.671875 54.554688 C 60.671875 55.183594 60.167969 55.6875 59.539062 55.6875 C 51.472656 55.6875 46.023438 54.328125 41.363281 53 C 36.707031 51.667969 32.886719 50.394531 27.785156 50.394531 C 26.796875 50.394531 25.472656 50.363281 23 51.597656 C 22.238281 51.980469 21.359375 51.433594 21.359375 50.585938 L 21.359375 20.152344 C 21.359375 19.722656 21.601562 19.332031 21.984375 19.140625 C 24.796875 17.734375 26.796875 17.695312 27.785156 17.695312 Z M 27.785156 17.695312 "/>
</g>
</svg>

<svg xmlns="http://www.w3.org/2000/svg" width="64pt" height="64pt" viewBox="0 0 64 64"><defs><linearGradient id="a" gradientUnits="userSpaceOnUse" x1="254" y1="233.5" x2="254" y2="254.667" gradientTransform="translate(6.615 26.878) scale(.12501)"><stop offset="0" stop-opacity=".275"/><stop offset="1" stop-opacity="0"/></linearGradient><radialGradient id="b" gradientUnits="userSpaceOnUse" cx="450.909" cy="189.579" fx="450.909" fy="189.579" r="21.167" gradientTransform="matrix(0 -.15626 -.28128 0 110.877 127.19)"><stop offset="0" stop-opacity=".314"/><stop offset=".222" stop-opacity=".275"/><stop offset="1" stop-opacity="0"/></radialGradient><radialGradient id="c" gradientUnits="userSpaceOnUse" cx="450.909" cy="189.579" fx="450.909" fy="189.579" r="21.167" gradientTransform="matrix(0 .15626 .28128 0 2.244 -15.055)"><stop offset="0" stop-opacity=".314"/><stop offset=".222" stop-opacity=".275"/><stop offset="1" stop-opacity="0"/></radialGradient><radialGradient id="d" gradientUnits="userSpaceOnUse" cx="450.909" cy="189.579" fx="450.909" fy="189.579" r="21.167" gradientTransform="matrix(0 -.15626 .28128 0 2.244 127.19)"><stop offset="0" stop-opacity=".314"/><stop offset=".222" stop-opacity=".275"/><stop offset="1" stop-opacity="0"/></radialGradient><radialGradient id="e" gradientUnits="userSpaceOnUse" cx="450.909" cy="189.579" fx="450.909" fy="189.579" r="21.167" gradientTransform="matrix(0 .15626 -.28128 0 110.877 -15.055)"><stop offset="0" stop-opacity=".314"/><stop offset=".222" stop-opacity=".275"/><stop offset="1" stop-opacity="0"/></radialGradient><linearGradient id="f" gradientUnits="userSpaceOnUse" x1="31.75" y1="-31.083" x2="349.25" y2=".667" gradientTransform="translate(0 26.878) scale(.12501)"><stop offset="0" stop-color="#7e57c2"/><stop offset="1" stop-color="#9575cd"/></linearGradient><linearGradient id="g" gradientUnits="userSpaceOnUse" x1="31.75" y1="-31.083" x2="349.25" y2=".667" gradientTransform="translate(17.2 38.593) scale(.12501)"><stop offset="0" stop-color="#ff7043"/><stop offset="1" stop-color="#ff8a65"/></linearGradient></defs><path d="M54.906 55.871h3.309v2.941h-3.309zm0 0" fill="url(#a)"/><path d="M58.215 56.066h5.293v-2.644h-5.293zm0 0" fill="url(#b)"/><path d="M54.906 56.066h-5.293v2.649h5.293zm0 0" fill="url(#c)"/><path d="M54.906 56.066h-5.293v-2.644h5.293zm0 0" fill="url(#d)"/><path d="M58.215 56.066h5.293v2.649h-5.293zm0 0" fill="url(#e)"/><path d="M10.586 5.793c-.992 0-3.043.043-5.887 1.46-.445.227-.73.684-.73 1.184v30.43a1.323 1.323 0 0 0 1.914 1.184c2.449-1.223 3.71-1.184 4.703-1.184 5.07 0 8.863 1.262 13.527 2.594 4.664 1.332 10.14 2.7 18.223 2.7.73 0 1.324-.595 1.324-1.325v-30.43c0-.73-.594-1.32-1.324-1.32-7.79 0-12.898-1.281-17.496-2.594-4.598-1.316-8.742-2.699-14.254-2.699zm0 0" fill-rule="evenodd" fill="url(#f)"/><path d="M10.586 5.793c-.992 0-3.043.043-5.887 1.46-.445.227-.73.684-.73 1.184v.66c0-.5.285-.956.73-1.179 2.844-1.422 4.895-1.465 5.887-1.465 5.512 0 9.656 1.383 14.254 2.7 4.598 1.312 9.707 2.593 17.496 2.593.73 0 1.324.59 1.324 1.32v-.66c0-.73-.594-1.32-1.324-1.32-7.79 0-12.898-1.281-17.496-2.594-4.598-1.316-8.742-2.699-14.254-2.699zm0 0" fill-rule="evenodd" fill="#fff" fill-opacity=".392"/><path d="M10.586 38.398c-.992 0-2.254-.043-4.703 1.184a1.323 1.323 0 0 1-1.914-1.184v.47a1.323 1.323 0 0 0 1.914 1.183c2.449-1.227 3.71-1.184 4.703-1.184 5.07 0 8.863 1.262 13.527 2.594 4.664 1.332 10.14 2.7 18.223 2.7.73 0 1.324-.595 1.324-1.325v-.469c0 .73-.594 1.324-1.324 1.324-8.082 0-13.559-1.367-18.223-2.699-4.664-1.332-8.457-2.594-13.527-2.594zm0 0" fill-rule="evenodd" fill-opacity=".235"/><path d="M10.586 5.605c-1 0-3.094.047-5.969 1.485a1.506 1.506 0 0 0-.836 1.348v30.43c0 1.116 1.188 1.847 2.188 1.35 2.422-1.21 3.617-1.163 4.617-1.163 5.039 0 8.809 1.254 13.476 2.59 4.668 1.332 10.168 2.703 18.274 2.703.832 0 1.512-.68 1.512-1.512v-30.43c0-.832-.68-1.508-1.512-1.508-7.77 0-12.852-1.277-17.445-2.59-4.594-1.312-8.762-2.703-14.305-2.703zm0 .375c5.48 0 9.598 1.375 14.203 2.692 4.602 1.312 9.734 2.601 17.547 2.601.629 0 1.137.504 1.137 1.133v30.43c0 .629-.508 1.137-1.137 1.137-8.063 0-13.512-1.36-18.172-2.692-4.656-1.328-8.477-2.601-13.578-2.601-.988 0-2.313-.035-4.785 1.203a1.132 1.132 0 0 1-1.645-1.016V8.437c0-.43.242-.82.63-1.015 2.812-1.406 4.812-1.442 5.8-1.442zm0 0" fill-rule="evenodd" fill="#212121"/><path d="M27.785 17.508c-.992 0-3.039.043-5.883 1.465-.449.222-.73.68-.73 1.18v30.433c0 .98 1.031 1.621 1.91 1.18 2.45-1.223 3.711-1.184 4.703-1.184 5.07 0 8.867 1.266 13.527 2.598 4.665 1.332 10.141 2.695 18.227 2.695.73 0 1.32-.59 1.32-1.32v-30.43c0-.73-.59-1.324-1.32-1.324-7.793 0-12.898-1.281-17.5-2.594-4.598-1.316-8.742-2.7-14.254-2.7zm0 0" fill-rule="evenodd" fill="url(#g)"/><path d="M27.785 17.508c-.992 0-3.039.043-5.883 1.465-.449.222-.73.68-.73 1.18v.663c0-.503.281-.96.73-1.183 2.844-1.422 4.891-1.465 5.883-1.465 5.512 0 9.656 1.383 14.254 2.7 4.602 1.312 9.707 2.593 17.5 2.593.73 0 1.32.594 1.32 1.324v-.66c0-.73-.59-1.324-1.32-1.324-7.793 0-12.898-1.281-17.5-2.594-4.598-1.316-8.742-2.7-14.254-2.7zm0 0" fill-rule="evenodd" fill="#fff" fill-opacity=".392"/><path d="M27.785 50.113c-.992 0-2.254-.043-4.703 1.184a1.32 1.32 0 0 1-1.91-1.184v.473c0 .98 1.031 1.621 1.91 1.18 2.45-1.223 3.711-1.184 4.703-1.184 5.07 0 8.867 1.266 13.527 2.598 4.665 1.332 10.141 2.695 18.227 2.695.73 0 1.32-.59 1.32-1.32v-.473c0 .73-.59 1.324-1.32 1.324-8.086 0-13.562-1.367-18.227-2.699-4.66-1.332-8.457-2.594-13.527-2.594zm0 0" fill-rule="evenodd" fill-opacity=".235"/><path d="M27.785 17.32c-.996 0-3.094.047-5.969 1.485a1.503 1.503 0 0 0-.832 1.347v30.434c0 1.113 1.188 1.848 2.184 1.348 2.426-1.211 3.621-1.164 4.617-1.164 5.04 0 8.809 1.253 13.477 2.59 4.668 1.331 10.168 2.703 18.277 2.703.832 0 1.508-.68 1.508-1.508v-30.43c0-.832-.676-1.512-1.508-1.512-7.773 0-12.852-1.273-17.45-2.586-4.593-1.312-8.76-2.707-14.304-2.707zm0 .375c5.48 0 9.602 1.375 14.203 2.692 4.602 1.316 9.739 2.601 17.551 2.601.629 0 1.133.508 1.133 1.137v30.43c0 .629-.504 1.133-1.133 1.133-8.066 0-13.516-1.36-18.176-2.688-4.656-1.332-8.476-2.605-13.578-2.605-.988 0-2.312-.032-4.785 1.203a1.127 1.127 0 0 1-1.64-1.012V20.152c0-.43.242-.82.624-1.011 2.813-1.407 4.813-1.446 5.801-1.446zm0 0" fill-rule="evenodd" fill="#212121"/></svg>
